src/icons/relayIcon.svg

<svg width="33" height="33" viewBox="0 0 33 33" fill="none" xmlns="http://www.w3.org/2000/svg">
  <path
    fill-rule="evenodd"
    clip-rule="evenodd"
    d="M10.3808 19.9047C10.8884 19.4192 11.7116 19.4192 12.2192 19.9047L15.2 22.7553V8.2447L12.2192 11.0953C11.7116 11.5808 10.8884 11.5808 10.3808 11.0953C9.87308 10.6098 9.87308 9.82263 10.3808 9.33711L15.5808 4.36414C16.0884 3.87862 16.9116 3.87862 17.4192 4.36414L22.6192 9.33711C23.1269 9.82263 23.1269 10.6098 22.6192 11.0953C22.1116 11.5808 21.2884 11.5808 20.7808 11.0953L17.8 8.2447V22.7553L20.7808 19.9047C21.2884 19.4192 22.1116 19.4192 22.6192 19.9047C23.1269 20.3902 23.1269 21.1774 22.6192 21.6629L17.4192 26.6359C16.9116 27.1214 16.0884 27.1214 15.5808 26.6359L10.3808 21.6629C9.87308 21.1774 9.87308 20.3902 10.3808 19.9047Z"
    fill="#E4E5EE"
  />
</svg>

<svg
  xmlns="http://www.w3.org/2000/svg"
  width="33"
  height="33"
  fill="none"
  xmlns:v="https://vecta.io/nano"
>
  <path
    fill-rule="evenodd"
    d="M10.381 19.905c.508-.485 1.331-.485 1.838 0l2.981 2.851V8.245l-2.981 2.851c-.508.486-1.331.486-1.838 0s-.508-1.273 0-1.758l5.2-4.973c.508-.486 1.331-.486 1.838 0l5.2 4.973c.508.486.508 1.273 0 1.758s-1.331.486-1.838 0L17.8 8.245v14.511l2.981-2.851c.508-.485 1.331-.485 1.838 0s.508 1.273 0 1.758l-5.2 4.973c-.508.486-1.331.486-1.838 0l-5.2-4.973c-.508-.486-.508-1.273 0-1.758z"
    fill="#e4e5ee"
  />
</svg>
